icons/duckduckgo-filled.svg

<svg width="256" height="256" viewBox="0 0 256 256" fill="none" xmlns="http://www.w3.org/2000/svg">
<path d="M196 0H60C26.8629 0 0 26.8629 0 60V196C0 229.137 26.8629 256 60 256H196C229.137 256 256 229.137 256 196V60C256 26.8629 229.137 0 196 0Z" fill="#DE5833"/>
<mask id="mask0_61_43" style="mask-type:luminance" maskUnits="userSpaceOnUse" x="18" y="18" width="220" height="221">
<path d="M238 127.998C238 188.654 188.656 238.004 127.994 238.004C67.3437 238.004 18 188.65 18 127.998C18 67.3459 67.3459 18 127.994 18C188.654 18 238 67.3459 238 127.998Z" fill="white"/>
</mask>
<path d="M172.899 291.514C169.043 273.767 146.632 233.592 138.132 216.605C129.632 199.618 121.128 175.69 125.001 160.22C125.704 157.409 117.641 135.997 119.958 134.482C137.987 122.7 142.733 135.767 149.952 130.493C153.667 127.767 158.735 132.736 160.02 128.223C164.643 112.013 153.581 83.7524 141.234 71.4009C137.196 67.3737 131.016 64.846 124.033 63.5029C121.347 59.8335 117.017 56.3054 110.884 53.0494C104.055 49.4142 89.2062 44.6137 81.501 43.3349C76.1628 42.478 74.9568 43.9497 72.6755 44.3202C74.8004 44.5088 84.8856 49.4913 86.8456 49.7827C84.8834 51.1108 79.119 49.7227 75.4409 51.3721C73.588 52.2118 72.2021 55.3929 72.2149 56.8988C82.7113 55.8363 99.1499 56.8645 108.845 61.183C101.129 62.0399 89.3947 63.0402 84.3479 65.6922C69.6786 73.4209 63.1987 91.4726 67.061 113.104C70.9254 134.686 87.9209 213.462 93.3277 239.767C98.7365 266.038 81.7431 283.038 70.9318 287.652L82.5164 288.43L78.6606 296.928C92.5501 298.47 107.997 293.843 107.997 293.843C104.917 302.336 84.0566 305.436 84.0566 305.436C84.0566 305.436 94.1245 308.516 110.315 302.336L136.583 292.294L144.304 312.372L158.986 297.705L165.166 313.128C165.196 313.126 176.785 309.256 172.92 291.487L172.899 291.514Z" fill="#D5D7D8"/>
<path d="M177.562 287.914C173.717 270.134 151.308 229.984 142.8 212.982C134.291 195.98 125.802 172.042 129.669 156.602C130.386 153.817 130.397 142.318 132.732 140.793C150.726 129.024 149.466 140.399 156.696 135.127C160.423 132.406 163.407 129.116 164.703 124.605C169.339 108.385 158.264 80.1344 145.91 67.7744C141.883 63.7472 135.697 61.2152 128.724 59.8785C126.042 56.1984 121.719 52.681 115.593 49.4207C104.025 43.29 89.7289 40.8394 76.4649 43.245C78.607 43.4592 83.4396 47.8248 85.3932 48.114C82.4371 50.1191 74.5691 49.8599 74.6184 54.3176C85.149 53.2637 96.6886 54.9281 106.395 59.2381C98.6786 60.0949 91.4961 62.0228 86.4728 64.6855C71.7908 72.4035 67.9307 87.8461 71.7908 109.486C75.6616 131.115 92.6593 209.893 98.0446 236.141C103.458 262.403 86.4729 279.386 75.6594 284.026L87.244 284.797L83.3882 293.307C97.2777 294.85 112.725 290.223 112.725 290.223C109.644 298.736 88.7842 301.803 88.7842 301.803C88.7842 301.803 98.8222 304.888 115.042 298.708L141.326 288.666L149.046 308.744L163.724 294.07L169.936 309.525C169.902 309.54 181.478 305.676 177.605 287.916L177.562 287.914Z" fill="white"/>
<path d="M88.7713 110.574C88.7713 106.091 92.3979 102.462 96.8899 102.462C101.388 102.462 104.998 106.091 104.998 110.574C104.998 115.058 101.367 118.684 96.8899 118.684C92.4001 118.686 88.7713 115.06 88.7713 110.574Z" fill="#2D4F8E"/>
<path d="M98.383 107.875C98.3822 107.598 98.4358 107.325 98.5409 107.069C98.6461 106.814 98.8006 106.582 98.9956 106.386C99.1906 106.19 99.4223 106.035 99.6774 105.929C99.9325 105.823 100.206 105.769 100.482 105.769C101.645 105.769 102.59 106.707 102.59 107.875C102.59 109.042 101.648 109.982 100.482 109.982C99.3298 109.985 98.383 109.04 98.383 107.875Z" fill="white"/>
<path d="M144.139 105.765C144.139 101.924 147.266 98.8029 151.105 98.8029C154.961 98.8029 158.08 101.924 158.08 105.765C158.08 109.621 154.963 112.744 151.105 112.744C149.256 112.739 147.485 112.002 146.179 110.694C144.874 109.386 144.14 107.613 144.139 105.765Z" fill="#2D4F8E"/>
<path d="M152.403 103.448C152.403 102.456 153.217 101.642 154.198 101.642C154.436 101.64 154.672 101.686 154.892 101.776C155.112 101.866 155.313 101.999 155.481 102.166C155.65 102.334 155.783 102.534 155.874 102.754C155.965 102.974 156.011 103.21 156.01 103.448C156.01 104.454 155.224 105.251 154.198 105.251C153.962 105.251 153.728 105.204 153.51 105.113C153.292 105.022 153.094 104.889 152.927 104.721C152.76 104.554 152.628 104.355 152.538 104.137C152.448 103.918 152.402 103.684 152.403 103.448Z" fill="white"/>
<path d="M99.1949 87.0711C99.1949 87.0711 93.0813 84.2864 87.1348 88.0415C81.1883 91.7966 81.4196 95.5882 81.4196 95.5882C81.4196 95.5882 78.2643 88.5556 86.6742 85.1089C95.0842 81.6623 99.1949 87.0711 99.1949 87.0711Z" fill="url(#paint0_linear_61_43)"/>
<path d="M155.301 86.5138C155.301 86.5138 150.91 84.0032 147.498 84.0461C140.493 84.1382 138.582 87.2336 138.582 87.2336C138.582 87.2336 139.76 79.854 148.719 81.3342C153.577 82.1417 155.301 86.5138 155.301 86.5138Z" fill="url(#paint1_linear_61_43)"/>
<path d="M121.717 141.86C122.531 136.933 135.212 127.668 144.209 127.107C153.206 126.539 155.991 126.668 163.488 124.873C170.986 123.078 190.34 118.258 195.691 115.786C201.055 113.31 223.761 117.011 207.751 125.935C200.828 129.791 182.168 136.924 168.825 140.902C155.501 144.887 147.403 137.098 142.991 143.644C139.465 148.854 142.275 155.987 158.2 157.467C179.7 159.459 200.314 147.785 202.584 153.986C204.855 160.188 184.109 167.927 171.47 168.174C158.847 168.388 133.405 159.828 129.581 157.169C125.757 154.511 120.659 148.323 121.719 141.858L121.717 141.86Z" fill="#FDD20A"/>
<path d="M131.449 206.759C131.449 206.759 101.241 190.65 100.748 197.184C100.238 203.73 100.748 230.387 104.267 232.422C107.787 234.457 132.963 219.338 132.963 219.338L131.449 206.759ZM143.023 205.744C143.023 205.744 163.662 190.138 168.201 191.145C172.7 192.173 173.732 224.348 169.701 225.912C165.673 227.411 142.05 217.744 142.05 217.744L143.023 205.744Z" fill="#65BC46"/>
<path d="M124.138 208.49C124.138 219.055 122.638 223.592 127.137 224.599C131.635 225.606 140.212 224.599 143.241 222.59C146.27 220.58 143.738 206.995 142.744 204.457C141.722 201.942 124.116 203.96 124.116 208.492L124.138 208.49Z" fill="#43A244"/>
<path d="M126.057 206.116C126.057 216.683 124.543 221.218 129.056 222.225C133.567 223.253 142.132 222.225 145.165 220.216C148.164 218.202 145.658 204.621 144.659 202.081C143.646 199.568 126.04 201.594 126.04 206.119L126.057 206.116Z" fill="#65BC46"/>
</svg>

<svg xmlns="http://www.w3.org/2000/svg" width="256" height="256" fill="none"><path fill="#DE5833" d="M196 0H60C26.863 0 0 26.863 0 60v136c0 33.137 26.863 60 60 60h136c33.137 0 60-26.863 60-60V60c0-33.137-26.863-60-60-60"/><path fill="#D5D7D8" d="M172.899 291.514c-3.856-17.747-26.267-57.922-34.767-74.909s-17.004-40.915-13.131-56.385c.703-2.811-7.36-24.223-5.043-25.738 18.029-11.782 22.775 1.285 29.994-3.989 3.715-2.726 8.783 2.243 10.068-2.27 4.623-16.21-6.439-44.47-18.786-56.822-4.038-4.027-10.218-6.555-17.201-7.898-2.686-3.67-7.016-7.198-13.149-10.454-6.829-3.635-21.678-8.435-29.383-9.714-5.338-.857-6.544.615-8.826.985 2.125.189 12.21 5.171 14.17 5.463-1.962 1.328-7.726-.06-11.404 1.59-1.853.839-3.239 4.02-3.226 5.526 10.496-1.063 26.935-.035 36.63 4.284-7.716.857-19.45 1.857-24.497 4.51-14.67 7.728-21.15 25.78-17.287 47.411 3.864 21.582 20.86 100.358 26.267 126.663 5.409 26.271-11.585 43.271-22.396 47.885l11.584.778-3.855 8.498c13.89 1.542 29.336-3.085 29.336-3.085-3.08 8.493-23.94 11.593-23.94 11.593s10.067 3.08 26.258-3.1l26.268-10.042 7.721 20.078 14.682-14.667 6.18 15.423c.03-.002 11.619-3.872 7.754-21.641z"/><path fill="#fff" d="M177.562 287.914c-3.845-17.78-26.254-57.93-34.762-74.932-8.509-17.002-16.998-40.94-13.131-56.38.717-2.785.728-14.284 3.063-15.809 17.994-11.769 16.734-.394 23.964-5.666 3.727-2.721 6.711-6.011 8.007-10.522 4.636-16.22-6.439-44.47-18.793-56.83-4.027-4.028-10.213-6.56-17.186-7.897-2.682-3.68-7.005-7.197-13.131-10.457-11.568-6.131-25.864-8.582-39.128-6.176 2.142.214 6.975 4.58 8.928 4.869-2.956 2.005-10.824 1.746-10.775 6.204 10.531-1.054 22.07.61 31.777 4.92-7.716.857-14.899 2.785-19.922 5.448-14.682 7.717-18.542 23.16-14.682 44.8 3.87 21.629 20.868 100.407 26.254 126.655 5.413 26.262-11.572 43.245-22.386 47.885l11.585.771-3.856 8.51c13.89 1.543 29.337-3.084 29.337-3.084-3.081 8.513-23.94 11.58-23.94 11.58s10.037 3.085 26.257-3.095l26.284-10.042 7.72 20.078 14.678-14.674 6.212 15.455c-.034.015 11.542-3.849 7.669-21.609z"/><path fill="#2D4F8E" d="M88.771 110.574a8.11 8.11 0 0 1 8.119-8.112 8.095 8.095 0 0 1 8.108 8.112 8.106 8.106 0 0 1-8.108 8.11 8.105 8.105 0 0 1-8.119-8.11"/><path fill="#fff" d="M98.383 107.875a2.1 2.1 0 0 1 1.294-1.946 2.105 2.105 0 0 1 2.913 1.946 2.104 2.104 0 1 1-4.207 0"/><path fill="#2D4F8E" d="M144.139 105.765c0-3.841 3.127-6.962 6.966-6.962 3.856 0 6.975 3.121 6.975 6.962a6.97 6.97 0 0 1-6.975 6.979 6.985 6.985 0 0 1-6.966-6.979"/><path fill="#fff" d="M152.403 103.448a1.81 1.81 0 0 1 2.489-1.672 1.8 1.8 0 0 1 .982.978c.091.22.137.456.136.694a1.785 1.785 0 0 1-1.812 1.803 1.8 1.8 0 0 1-1.271-.53 1.8 1.8 0 0 1-.524-1.273"/><path fill="url(#paint0_linear_61_43)" d="M99.195 87.071s-6.114-2.785-12.06.97-5.715 7.547-5.715 7.547-3.156-7.032 5.254-10.48c8.41-3.446 12.52 1.963 12.52 1.963"/><path fill="url(#paint1_linear_61_43)" d="M155.301 86.514s-4.391-2.51-7.803-2.468c-7.005.092-8.916 3.188-8.916 3.188s1.178-7.38 10.137-5.9c4.858.808 6.582 5.18 6.582 5.18"/><path fill="#FDD20A" d="M121.717 141.86c.814-4.927 13.495-14.192 22.492-14.753 8.997-.568 11.782-.439 19.279-2.234 7.498-1.795 26.852-6.615 32.203-9.087 5.364-2.476 28.07 1.225 12.06 10.149-6.923 3.856-25.583 10.989-38.926 14.967-13.324 3.985-21.422-3.804-25.834 2.742-3.526 5.21-.716 12.343 15.209 13.823 21.5 1.992 42.114-9.682 44.384-3.481s-18.475 13.941-31.114 14.188c-12.623.214-38.065-8.346-41.889-11.005-3.824-2.658-8.922-8.846-7.862-15.311z"/><path fill="#65BC46" d="M131.449 206.759s-30.208-16.109-30.701-9.575c-.51 6.546 0 33.203 3.519 35.238s28.696-13.084 28.696-13.084zm11.574-1.015s20.639-15.606 25.178-14.599c4.499 1.028 5.531 33.203 1.5 34.767-4.028 1.499-27.651-8.168-27.651-8.168z"/><path fill="#43A244" d="M124.138 208.49c0 10.565-1.5 15.102 2.999 16.109 4.498 1.007 13.075 0 16.104-2.009s.497-15.595-.497-18.133c-1.022-2.515-18.628-.497-18.628 4.035z"/><path fill="#65BC46" d="M126.057 206.116c0 10.567-1.514 15.102 2.999 16.109 4.511 1.028 13.076 0 16.109-2.009 2.999-2.014.493-15.595-.506-18.135-1.013-2.513-18.619-.487-18.619 4.038z"/></svg>
